images/banner.svg

<svg width="1110" height="170" viewBox="0 0 1110 170" fill="none" 
    xmlns="http://www.w3.org/2000/svg">
    <g clip-path="url(#clip0)">
        <rect width="1110" height="170" fill="#292984"/>
        <path d="M348.105 22.5914C249.317 -88 -29.0002 42.0001 -87.0002 -22.6681L-98.4094 348.411L1299 187L1291 2.00013C1158 202 1128.81 30.0301 1068 57.0001C1024.21 76.422 1008.58 92.5487 897.174 9.04885C737 -111 699 42 603 123C498.233 211.397 397.294 77.6583 348.105 22.5914Z" fill="url(#paint0_linear)"/>
        <path d="M-31.0001 102C120 185 143.537 -25.7883 275.001 61.7431C364 121 417.921 297.311 502 190C578 92.9999 626 -32.0001 750.144 61.7431C803.887 102.325 862 100 925 7.99993C1009.7 -115.684 1051 104.743 1126 61.7432" stroke="#373798" stroke-width="3"/>
        <path d="M-32.0002 110C126 220 136 48.0003 259 117C351.674 168.988 423.921 313.311 507.999 206C583.999 109 643.999 48.0002 750.144 101.743C799.999 126.987 865.671 148.912 939 71C1035 -31 1064 178 1169 31" stroke="#5454B0" stroke-width="3"/>
        <path d="M-32.0004 149.958C126 259.958 90 110.958 205 149.958C303.048 183.209 423.921 353.269 507.999 245.958C583.999 148.958 645 114.042 707 136C758.688 154.306 824.745 216.659 917 159C1021 94 1085 232.958 1160 189.958" stroke="#1A1A6F" stroke-width="3"/>
        <path d="M-30.9998 88.0001C120.001 171 143.537 -109.531 275.001 -21.9999C364 37.2569 437.62 281.372 502 160C563 44.9999 609.316 -119.237 750.144 9.50258e-05C834 70.9999 874 57.9999 919 -28C988.963 -161.707 1086 75.9998 1161 32.9999" stroke="#262691" stroke-width="3"/>
    </g>
    <defs>
        <linearGradient id="paint0_linear" x1="210.924" y1="-1.0001" x2="157.28" y2="239.01" gradientUnits="userSpaceOnUse">
            <stop stop-color="#1F1F76"/>
            <stop offset="1" stop-color="#1F1F76" stop-opacity="0"/>
        </linearGradient>
        <clipPath id="clip0">
            <rect width="1110" height="170" fill="white"/>
        </clipPath>
    </defs>
</svg>

<svg width="1110" height="170" fill="none" xmlns="http://www.w3.org/2000/svg"><g clip-path="url(#clip0)"><path fill="#292984" d="M0 0h1110v170H0z"/><path d="M348.105 22.591C249.317-88-29 42.001-87-22.669l-11.41 371.08L1299 187l-8-185c-133 200-162.19 28.03-223 55-43.79 19.422-59.42 35.549-170.826-47.951C737-111 699 42 603 123 498.233 211.397 397.294 77.658 348.105 22.591z" fill="url(#paint0_linear)"/><path d="M-31 102C120 185 143.537-25.788 275 61.743 364 121 417.921 297.311 502 190 578 93 626-32 750.144 61.743 803.887 102.325 862 100 925 8c84.7-123.684 126 96.743 201 53.743" stroke="#373798" stroke-width="3"/><path d="M-32 110c158 110 168-62 291 7 92.674 51.988 164.921 196.311 248.999 89 76-97 136-158 242.145-104.257C799.999 126.987 865.671 148.912 939 71c96-102 125 107 230-40" stroke="#5454B0" stroke-width="3"/><path d="M-32 149.958c158 110 122-39 237 0 98.048 33.251 218.921 203.311 302.999 96C583.999 148.958 645 114.042 707 136c51.688 18.306 117.745 80.659 210 23 104-65 168 73.958 243 30.958" stroke="#1A1A6F" stroke-width="3"/><path d="M-31 88C120.001 171 143.537-109.53 275.001-22 364 37.257 437.62 281.372 502 160 563 45 609.316-119.237 750.144 0 834 71 874 58 919-28c69.963-133.707 167 104 242 61" stroke="#262691" stroke-width="3"/></g><defs><linearGradient id="paint0_linear" x1="210.924" y1="-1" x2="157.28" y2="239.01" gradientUnits="userSpaceOnUse"><stop stop-color="#1F1F76"/><stop offset="1" stop-color="#1F1F76" stop-opacity="0"/></linearGradient><clipPath id="clip0"><path fill="#fff" d="M0 0h1110v170H0z"/></clipPath></defs></svg>
